public/avatar/shoe/76.svg

<svg xmlns:xlink="http://www.w3.org/1999/xlink" height="38.3" width="36.05" xmlns="http://www.w3.org/2000/svg"><use height="22.15" transform="translate(7.45 7.35)" width="25.35" xlink:href="#a"/><defs><g id="a"><path d="M.3-7.3q3.8-.3 5.2-.1 1.6.85 1.65 12.95.75.05 1.35.65l.4 1.6q.2 1.45-.05 1.8L7.35 11q-1.25 1-1.3.35v-1.6L4 10.8v1.95q-4.05 1.85-4.45 1l-.15-1.5-2.85.5v1.65q-.2.55-5.35 0l-.1-1.45-2.2-.3-.15 1.3-2.65.05q-1.85-.4-2.25-1.3-.55-2.6.4-3.4l1.2-.3q-.1-3.05.5-3.95.7-1 3.65-1.85.85-1.4 2.7-1.4-.7-1.95 1.25-2.45-1.3-1.25.15-2.55-.6-.95-.1-2.05l.65-.9.15-.3L.3-7.3" fill-rule="evenodd" transform="translate(16.35 7.5)"/><path d="M4.7 11.7q3.15-.45 4.6 2.15 1.15 2 .85 4" fill="none" stroke="#fff" stroke-linecap="round" stroke-linejoin="round" stroke-width=".5"/><path d="M2.05 16.6Q8.4 19.05 16 17q6.2-1.6 7.35-3.55" fill="none" stroke="#fff" stroke-linecap="round" stroke-linejoin="round" stroke-width=".5"/><path d="M22.8 7.9q-4.65.8-3.65 8.05" fill="none" stroke="#fff" stroke-linecap="round" stroke-linejoin="round" stroke-width=".5"/><path d="M-9.25 3.2q0-.95 1.65-.75l3.75.55q-.85 1.3-2 1.65-.9-.8-3.4-1.45m2.5-1.75Q-7.3.2-6.25.1l4.3.1q-.15 1-1.2 1.6l-3.6-.35m1.1-2.55q-.6-.55-.35-1.1l.4-.45 4.05-.2-.2 1.75q-1.3-.2-3.9 0m.05-2.6q-.65-.95.4-1.8l3.5-.45q.25 1.1.15 1.9l-4.05.35" fill="#ff3d2b" fill-rule="evenodd" transform="translate(16.35 7.5)"/><path d="M-4.7 5.3q1.3-.65 1.75-1.85 1.4 1.1.15 1.9l-1.9-.05m4-4.8Q.75.95 0 2.25q-.8 1.2-1.9.3Q-1 1.5-.7.5m.25-3.35q1.7-.05 1.6 1.1 0 1.1-1.7.75.2-.4.1-1.85M-.7-6q2.05-.3 2 .85Q1.25-4-.6-4.05L-.7-6" fill="#fff" fill-rule="evenodd" transform="translate(16.35 7.5)"/></g></defs></svg>

<?xml version="1.0" encoding="UTF-8" standalone="no"?>
<svg xmlns:xlink="http://www.w3.org/1999/xlink" height="38.3px" width="36.05px" xmlns="http://www.w3.org/2000/svg">
  <g transform="matrix(1.0, 0.0, 0.0, 1.0, 23.8, 14.85)">
    <use height="22.15" transform="matrix(1.0, 0.0, 0.0, 1.0, -16.35, -7.5)" width="25.35" xlink:href="#shape0"/>
  </g>
  <defs>
    <g id="shape0" transform="matrix(1.0, 0.0, 0.0, 1.0, 16.35, 7.5)">
      <path d="M0.3 -7.3 Q4.1 -7.6 5.5 -7.4 7.1 -6.55 7.15 5.55 7.9 5.6 8.5 6.2 L8.9 7.8 Q9.1 9.25 8.85 9.6 L7.35 11.0 Q6.1 12.0 6.05 11.35 L6.05 9.75 4.0 10.8 4.0 12.75 Q-0.05 14.6 -0.45 13.75 L-0.6 12.25 -3.45 12.75 -3.45 14.4 Q-3.65 14.95 -8.8 14.4 L-8.9 12.95 -11.1 12.65 -11.25 13.95 -13.9 14.0 Q-15.75 13.6 -16.15 12.7 -16.7 10.1 -15.75 9.3 L-14.55 9.0 Q-14.65 5.95 -14.05 5.05 -13.35 4.05 -10.4 3.2 -9.55 1.8 -7.7 1.8 -8.4 -0.15 -6.45 -0.65 -7.75 -1.9 -6.3 -3.2 -6.9 -4.15 -6.4 -5.25 L-5.75 -6.15 -5.6 -6.45 0.3 -7.3" fill="#000000" fill-rule="evenodd" stroke="none"/>
      <path d="M-11.65 4.2 Q-8.5 3.75 -7.05 6.35 -5.9 8.35 -6.2 10.35" fill="none" stroke="#ffffff" stroke-linecap="round" stroke-linejoin="round" stroke-width="0.5"/>
      <path d="M-14.3 9.1 Q-7.95 11.55 -0.35 9.5 5.85 7.9 7.0 5.95" fill="none" stroke="#ffffff" stroke-linecap="round" stroke-linejoin="round" stroke-width="0.5"/>
      <path d="M6.45 0.4 Q1.8 1.2 2.8 8.45" fill="none" stroke="#ffffff" stroke-linecap="round" stroke-linejoin="round" stroke-width="0.5"/>
      <path d="M-9.25 3.2 Q-9.25 2.25 -7.6 2.45 L-3.85 3.0 Q-4.7 4.3 -5.85 4.65 -6.75 3.85 -9.25 3.2" fill="#ff3d2b" fill-rule="evenodd" stroke="none"/>
      <path d="M-6.75 1.45 Q-7.3 0.2 -6.25 0.1 L-1.95 0.2 Q-2.1 1.2 -3.15 1.8 L-6.75 1.45" fill="#ff3d2b" fill-rule="evenodd" stroke="none"/>
      <path d="M-5.65 -1.1 Q-6.25 -1.65 -6.0 -2.2 L-5.6 -2.65 -1.55 -2.85 -1.75 -1.1 Q-3.05 -1.3 -5.65 -1.1" fill="#ff3d2b" fill-rule="evenodd" stroke="none"/>
      <path d="M-5.6 -3.7 Q-6.25 -4.65 -5.2 -5.5 L-1.7 -5.95 Q-1.45 -4.85 -1.55 -4.05 L-5.6 -3.7" fill="#ff3d2b" fill-rule="evenodd" stroke="none"/>
      <path d="M-4.7 5.3 Q-3.4 4.65 -2.95 3.45 -1.55 4.55 -2.8 5.35 L-4.7 5.3" fill="#ffffff" fill-rule="evenodd" stroke="none"/>
      <path d="M-0.7 0.5 Q0.75 0.95 0.0 2.25 -0.8 3.45 -1.9 2.55 -1.0 1.5 -0.7 0.5" fill="#ffffff" fill-rule="evenodd" stroke="none"/>
      <path d="M-0.45 -2.85 Q1.25 -2.9 1.15 -1.75 1.15 -0.65 -0.55 -1.0 -0.35 -1.4 -0.45 -2.85" fill="#ffffff" fill-rule="evenodd" stroke="none"/>
      <path d="M-0.7 -6.0 Q1.35 -6.3 1.3 -5.15 1.25 -4.0 -0.6 -4.05 L-0.7 -6.0" fill="#ffffff" fill-rule="evenodd" stroke="none"/>
    </g>
  </defs>
</svg>
